src/assets/icons/remotes/pikpak.svg

<svg width="24" height="24" viewBox="0 0 24 24" fill="currentColor" xmlns="http://www.w3.org/2000/svg">
    <path fill-rule="evenodd" clip-rule="evenodd"
        d="M10.2917 6.1541C10.5312 6.1238 10.7348 5.96455 10.8217 5.73935L11.5418 3.8749C11.6014 3.72055 11.4748 3.55845 11.3106 3.5789L3.73265 4.5221C3.3432 4.5706 3.0096 4.8239 2.85825 5.18595L2.016 7.2014L5.4438 6.76765L10.2917 6.1541ZM13.7243 6.1541C13.4848 6.1238 13.2813 5.96455 13.1943 5.73935L12.4742 3.8749C12.4146 3.72055 12.5412 3.55845 12.7053 3.5789L20.2833 4.5221C20.6727 4.5706 21.0064 4.8239 21.1577 5.18595L22 7.2014L13.7243 6.1541ZM2 7.2017L22 7.2014V18.1861C22 19.4215 20.9985 20.4229 19.7631 20.4229H4.23685C3.00145 20.4229 2 19.4215 2 18.1861V7.2017ZM8.4445 10.6383C8.9386 10.6383 9.3392 11.0388 9.3392 11.533V13.3108C9.3392 13.8049 8.9386 14.2055 8.4445 14.2055C7.95035 14.2055 7.54975 13.8049 7.54975 13.3108V11.533C7.54975 11.0388 7.95035 10.6383 8.4445 10.6383ZM16.4503 11.533C16.4503 11.0388 16.0497 10.6383 15.5555 10.6383C15.0614 10.6383 14.6609 11.0388 14.6609 11.533V13.3108C14.6609 13.8049 15.0614 14.2055 15.5555 14.2055C16.0497 14.2055 16.4503 13.8049 16.4503 13.3108V11.533ZM14.712 16.9016C14.8267 17.1907 14.6853 17.5181 14.3962 17.6327L14.3075 17.4091C14.3478 17.5107 14.3964 17.6327 14.3962 17.6327L14.3953 17.6331L14.394 17.6336L14.3902 17.6351L14.3776 17.64C14.3671 17.644 14.3525 17.6495 14.334 17.6564C14.2969 17.6701 14.2443 17.6891 14.1781 17.7116C14.0461 17.7566 13.8591 17.816 13.6355 17.8752C13.1936 17.9924 12.5846 18.1156 11.9621 18.1156C11.3393 18.1156 10.735 17.9923 10.2973 17.8748C10.076 17.8154 9.8914 17.7559 9.761 17.7107C9.69565 17.6882 9.6436 17.6691 9.60705 17.6553C9.5887 17.6484 9.57425 17.6428 9.5639 17.6387L9.55145 17.6338L9.5476 17.6323L9.54625 17.6318L9.54555 17.6315C9.5454 17.6314 9.6633 17.3395 9.69445 17.2625L9.54555 17.6315C9.2572 17.515 9.1177 17.1866 9.23425 16.8983C9.3507 16.6101 9.67855 16.4708 9.96675 16.5869L9.9676 16.5872L9.974 16.5898C9.98025 16.5922 9.9904 16.5961 10.0042 16.6014C10.032 16.6118 10.0743 16.6273 10.1291 16.6463C10.239 16.6843 10.3979 16.7356 10.5893 16.787C10.9772 16.8911 11.4759 16.9893 11.9621 16.9893C12.4487 16.9893 12.953 16.891 13.347 16.7865C13.5413 16.735 13.7031 16.6836 13.8152 16.6454C13.8712 16.6264 13.9144 16.6107 13.9428 16.6002C13.957 16.595 13.9674 16.591 13.9739 16.5885L13.9805 16.586L13.9811 16.5857C14.2701 16.4714 14.5974 16.6127 14.712 16.9016Z" />
</svg>

<svg xmlns="http://www.w3.org/2000/svg" width="24" height="24" fill="currentColor" viewBox="0 0 24 24"><path fill-rule="evenodd" d="M10.292 6.154c.24-.03.443-.19.53-.415l.72-1.864a.22.22 0 0 0-.231-.296l-7.578.943c-.39.049-.723.302-.875.664l-.842 2.015 3.428-.433zm3.432 0a.66.66 0 0 1-.53-.415l-.72-1.864a.22.22 0 0 1 .231-.296l7.578.943c.39.049.723.302.875.664L22 7.201zM2 7.202h20v10.984a2.237 2.237 0 0 1-2.237 2.237H4.237A2.237 2.237 0 0 1 2 18.186zm6.445 3.436c.494 0 .894.4.894.895v1.778a.895.895 0 0 1-1.79 0v-1.778c0-.494.401-.895.895-.895m8.005.895a.895.895 0 1 0-1.79 0v1.778a.895.895 0 1 0 1.79 0zm-1.738 5.369a.563.563 0 0 1-.316.73l-.089-.223.09.224h-.003l-.004.002-.012.005a7 7 0 0 1-.742.235 6.7 6.7 0 0 1-1.674.24 6.6 6.6 0 0 1-1.665-.24 8 8 0 0 1-.733-.236l-.013-.005-.003-.002h-.002l.148-.37-.148.37a.563.563 0 0 1 .42-1.045h.002l.006.003.03.011.125.045c.11.038.269.09.46.141.388.104.887.202 1.373.202.487 0 .991-.098 1.385-.203a7 7 0 0 0 .627-.198l.006-.002h.001a.563.563 0 0 1 .731.316" clip-rule="evenodd"/></svg>
